X:1
T:Title
%%score { ( 1 3 5 ) | ( 2 4 6 ) }
L:1/8
M:4/4
K:Bb
V:1 treble nm="Grand Piano"
V:3 treble 
V:5 treble 
V:2 bass 
V:4 bass 
V:6 bass 
V:1
 z4 z2[Q:1/4=100] F2 | F2 G>A B2 c>G | B2 A>G B2 A>G | F2 A>B c2 =B>c | [Fd]2 [DB]>G B,2 F,2 | %5
 d2 _d>=d e2 d>=B | [Dc]2 B>A [Dc]2 B>A | G2 A>B c2 =e>d | c2 G>c z2 E2 | [Fd]2 [Fd]2 [DF]2 (3FGA | %10
 [DB]2 [Dc]2 [EA]4 | [EGe]2 [EAe]2 z2 z A | [DG]2 [DF]2 [DF]4 | z4 z .d3 | z4 z F3 | %15
 z4 z [Bd]3[K:bass] | [=EB]2 [_EFc]2 [DFB]4 |] %17
V:2
 z8 | [B,,B,]2 [F,,F,]2 [B,,B,]2 [F,,F,]2 | [C,C]2 [F,,F,]2 [C,C]2 [F,,F,]2 | %3
 [A,,A,]2 [F,,F,]2 [A,,A,]2 [F,,F,]2 | [B,,B,]2 z z/ E/ B,,2 z F | %5
 [G,,G,]2 [=B,,=B,]2 [C,C]2 [D,D]>[E,E] | [F,,F,]2 [B,D]2 [D,,D,]2 [G,B,D]2 | %7
 [C,,C,]2 [=E,G,B,]2 G,,2 [E,G,B,]2 | [C,,C,]2 [=E,G,B,]2 [F,,F,]2 [A,C]2 | %9
 [B,,B,]2 [F,,F,]2 [B,,B,]2 [F,,F,]2 | [B,,B,]2 [F,,F,]2 [C,C]2 [F,,F,]2 | %11
 [C,C]2 [F,,F,]2 [C,,C,]2 F,,2 | [B,,B,]2 [F,,F,]2 [D,,D,]2 [B,,,B,,]2 | z4 z .[DF]3 | z4 z B,3 | %15
 [E,,E,]2 [=E,,=E,]2 z[K:treble] [DF]3 | [C,C]2 [F,,F,]2 [B,,F,]4 |] %17
V:3
 x8 | D4 D4 | E4 E4 | E4 E4 | z4 [DF]4 | F4 G4 | x8 | x8 | z4 F4 | x8 | x8 | z4 [A,EG]4 | x8 | %13
 [DFd]2 [DFd]>[DFd] .[EGe]2 z c | [B,DB]2 [B,_D=EB]>[EB] .[DB]2 D,2 | %15
 [B,CG]2 [B,_DA]B .[FBdf]2[K:bass] [B,,B,]2 | x8 |] %17
V:4
 x8 | x8 | x8 | x8 | z2 [F,,F,]2 z2 F,,2 | x8 | x8 | x8 | x8 | x8 | x8 | x8 | x8 | %13
 [B,,B,]2 [F,,F,]2 z2 z [CE] | [G,,G,]2 z z/ [B,_D]/ z2 D,,2 | z4 [F,,F,]2[K:treble] z2 | x8 |] %17
V:5
 x8 | x8 | x8 | x8 | x8 | x8 | x8 | x8 | x8 | x8 | x8 | z4 z2 F,2 | x8 | z4 z2 F,2 | x8 | %15
 x6[K:bass] x2 | x8 |] %17
V:6
 x8 | x8 | x8 | x8 | x8 | x8 | x8 | x8 | x8 | x8 | x8 | x8 | x8 | z4 [B,,B,]2 F,,2 | %14
 z2 [^F,,^F,]2 [=F,,=F,]2 z2 | x5[K:treble] x3 | x8 |] %17

